48x48/apps/gromit.svg

<svg viewBox="0 0 48 48"><defs><linearGradient id="linearGradient3764" x1="1" x2="47" gradientUnits="userSpaceOnUse" gradientTransform="matrix(0,-1,1,0,-1.5e-6,47.999998)"><stop stop-color="#9dca3c" stop-opacity="1"/><stop offset="1" stop-color="#a5ce4c" stop-opacity="1"/></linearGradient><clipPath id="clipPath-929894695"><g transform="translate(0,-1004.3622)"><path d="m -24 13 c 0 1.105 -0.672 2 -1.5 2 -0.828 0 -1.5 -0.895 -1.5 -2 0 -1.105 0.672 -2 1.5 -2 0.828 0 1.5 0.895 1.5 2 z" transform="matrix(15.333333,0,0,11.5,414.99999,878.8622)" fill="#1890d0"/></g></clipPath><clipPath id="clipPath-942386966"><g transform="translate(0,-1004.3622)"><path d="m -24 13 c 0 1.105 -0.672 2 -1.5 2 -0.828 0 -1.5 -0.895 -1.5 -2 0 -1.105 0.672 -2 1.5 -2 0.828 0 1.5 0.895 1.5 2 z" transform="matrix(15.333333,0,0,11.5,414.99999,878.8622)" fill="#1890d0"/></g></clipPath></defs><g><path d="m 36.31 5 c 5.859 4.062 9.688 10.831 9.688 18.5 c 0 12.426 -10.07 22.5 -22.5 22.5 c -7.669 0 -14.438 -3.828 -18.5 -9.688 c 1.037 1.822 2.306 3.499 3.781 4.969 c 4.085 3.712 9.514 5.969 15.469 5.969 c 12.703 0 23 -10.298 23 -23 c 0 -5.954 -2.256 -11.384 -5.969 -15.469 c -1.469 -1.475 -3.147 -2.744 -4.969 -3.781 z m 4.969 3.781 c 3.854 4.113 6.219 9.637 6.219 15.719 c 0 12.703 -10.297 23 -23 23 c -6.081 0 -11.606 -2.364 -15.719 -6.219 c 4.16 4.144 9.883 6.719 16.219 6.719 c 12.703 0 23 -10.298 23 -23 c 0 -6.335 -2.575 -12.06 -6.719 -16.219 z" opacity="0.05"/><path d="m 41.28 8.781 c 3.712 4.085 5.969 9.514 5.969 15.469 c 0 12.703 -10.297 23 -23 23 c -5.954 0 -11.384 -2.256 -15.469 -5.969 c 4.113 3.854 9.637 6.219 15.719 6.219 c 12.703 0 23 -10.298 23 -23 c 0 -6.081 -2.364 -11.606 -6.219 -15.719 z" opacity="0.1"/><path d="m 31.25 2.375 c 8.615 3.154 14.75 11.417 14.75 21.13 c 0 12.426 -10.07 22.5 -22.5 22.5 c -9.708 0 -17.971 -6.135 -21.12 -14.75 a 23 23 0 0 0 44.875 -7 a 23 23 0 0 0 -16 -21.875 z" opacity="0.2"/></g><g><path d="m 24 1 c 12.703 0 23 10.297 23 23 c 0 12.703 -10.297 23 -23 23 -12.703 0 -23 -10.297 -23 -23 0 -12.703 10.297 -23 23 -23 z" fill="url(#linearGradient3764)" fill-opacity="1"/></g><g/><g><g clip-path="url(#clipPath-929894695)"><g transform="translate(1,1)"><g opacity="0.1"><!-- color: #a5ce4c --><g><path d="m 6.105 8.215 c -0.148 -0.063 -0.187 -0.278 -0.008 -0.464 c 0.183 -0.186 0.584 -0.342 1.024 -0.536 c 0.44 -0.194 0.914 -0.43 1.229 -0.419 c 0.315 0.011 0.585 0.302 0.613 0.678 c 0.026 0.377 -0.06 0.875 -0.162 1.231 c -0.103 0.356 -0.115 0.53 -0.254 0.593 c -0.14 0.063 -0.396 0.093 -0.386 -0.244 c 0.009 -0.334 0.149 -1.01 0.194 -1.301 c 0.044 -0.291 -0.148 -0.312 -0.302 -0.269 c -0.155 0.043 -0.368 0.127 -0.595 0.233 c -0.227 0.106 -0.47 0.237 -0.714 0.348 c -0.246 0.111 -0.496 0.206 -0.641 0.147" transform="matrix(3.543307,0,0,3.543307,0,0)" stroke-opacity="1" fill="#000" fill-rule="nonzero" stroke="#2d2d2d" stroke-linejoin="miter" fill-opacity="1" stroke-linecap="butt" stroke-width="0.213" stroke-miterlimit="4"/><path d="m 6.734 4.722 c -0.486 0.391 -0.916 0.885 -1.233 1.358 c -0.317 0.472 -0.521 0.922 -0.642 1.327 c -0.121 0.405 -0.161 0.765 -0.086 1.119 c 0.075 0.354 0.262 0.701 0.59 0.826 c 0.325 0.125 0.787 0.028 1.175 -0.119 c 0.387 -0.143 0.699 -0.337 0.912 -0.648 c 0.212 -0.311 0.325 -0.74 0.465 -0.912 c 0.141 -0.172 0.313 -0.086 0.336 0.176 c 0.025 0.26 -0.096 0.699 -0.281 1.029 c -0.184 0.33 -0.432 0.55 -0.771 0.736 c -0.335 0.185 -0.756 0.336 -1.18 0.4 c -0.422 0.064 -0.849 0.04 -1.178 -0.129 c -0.331 -0.163 -0.569 -0.472 -0.684 -0.938 c -0.117 -0.471 -0.107 -1.098 0.035 -1.699 c 0.144 -0.603 0.423 -1.174 0.891 -1.757 c 0.465 -0.583 1.12 -1.176 1.681 -1.526 c 0.562 -0.353 1.033 -0.456 1.408 -0.473 c 0.374 -0.011 0.647 0.065 0.861 0.184 c 0.215 0.121 0.368 0.284 0.399 0.429 c 0.032 0.141 -0.06 0.267 -0.269 0.205 c -0.206 -0.064 -0.53 -0.31 -0.969 -0.289 c -0.432 0.02 -0.98 0.31 -1.465 0.698" transform="matrix(3.543307,0,0,3.543307,0,0)" stroke-opacity="1" fill="#000" fill-rule="evenodd" stroke="#2d2d2d" stroke-linejoin="miter" fill-opacity="1" stroke-linecap="butt" stroke-width="0.213" stroke-miterlimit="4"/><path d="m 6.734 4.722 c -0.486 0.391 -0.992 0.885 -1.311 1.358 c -0.316 0.472 -0.508 0.884 -0.628 1.289 c -0.118 0.408 -0.129 0.842 -0.054 1.196 c 0.075 0.354 0.248 0.729 0.571 0.852 c 0.325 0.125 0.869 0.014 1.253 -0.132 c 0.387 -0.142 0.674 -0.389 0.886 -0.7 c 0.212 -0.311 0.206 -0.712 0.346 -0.884 c 0.142 -0.172 0.431 -0.111 0.455 0.151 c 0.025 0.259 -0.096 0.699 -0.281 1.029 c -0.185 0.33 -0.432 0.55 -0.771 0.736 c -0.335 0.183 -0.756 0.334 -1.181 0.398 c -0.421 0.065 -0.767 0.065 -1.099 -0.098 c -0.332 -0.166 -0.659 -0.591 -0.774 -1.056 c -0.117 -0.471 -0.132 -0.957 0.01 -1.558 c 0.142 -0.603 0.463 -1.227 0.927 -1.808 c 0.466 -0.583 1.12 -1.176 1.682 -1.528 c 0.562 -0.351 1.033 -0.454 1.407 -0.471 c 0.375 -0.014 0.647 0.063 0.862 0.184 c 0.215 0.121 0.417 0.293 0.445 0.437 c 0.031 0.142 -0.133 0.356 -0.343 0.294 c -0.208 -0.061 -0.496 -0.369 -0.934 -0.348 c -0.433 0.021 -0.99 0.269 -1.476 0.659" transform="matrix(3.543307,0,0,3.543307,0,0)" stroke-opacity="1" fill="#000" fill-rule="nonzero" stroke="#2d2d2d" stroke-linejoin="miter" fill-opacity="1" stroke-linecap="butt" stroke-width="0.213" stroke-miterlimit="4"/></g></g></g></g></g><g><g clip-path="url(#clipPath-942386966)"><!-- color: #a5ce4c --><g><path d="m 6.105 8.215 c -0.148 -0.063 -0.187 -0.278 -0.008 -0.464 c 0.183 -0.186 0.584 -0.342 1.024 -0.536 c 0.44 -0.194 0.914 -0.43 1.229 -0.419 c 0.315 0.011 0.585 0.302 0.613 0.678 c 0.026 0.377 -0.06 0.875 -0.162 1.231 c -0.103 0.356 -0.115 0.53 -0.254 0.593 c -0.14 0.063 -0.396 0.093 -0.386 -0.244 c 0.009 -0.334 0.149 -1.01 0.194 -1.301 c 0.044 -0.291 -0.148 -0.312 -0.302 -0.269 c -0.155 0.043 -0.368 0.127 -0.595 0.233 c -0.227 0.106 -0.47 0.237 -0.714 0.348 c -0.246 0.111 -0.496 0.206 -0.641 0.147" transform="matrix(3.543307,0,0,3.543307,0,0)" stroke-opacity="1" fill="#d64936" fill-rule="nonzero" stroke="#2d2d2d" stroke-linejoin="miter" fill-opacity="1" stroke-linecap="butt" stroke-width="0.213" stroke-miterlimit="4"/><path d="m 6.734 4.722 c -0.486 0.391 -0.916 0.885 -1.233 1.358 c -0.317 0.472 -0.521 0.922 -0.642 1.327 c -0.121 0.405 -0.161 0.765 -0.086 1.119 c 0.075 0.354 0.262 0.701 0.59 0.826 c 0.325 0.125 0.787 0.028 1.175 -0.119 c 0.387 -0.143 0.699 -0.337 0.912 -0.648 c 0.212 -0.311 0.325 -0.74 0.465 -0.912 c 0.141 -0.172 0.313 -0.086 0.336 0.176 c 0.025 0.26 -0.096 0.699 -0.281 1.029 c -0.184 0.33 -0.432 0.55 -0.771 0.736 c -0.335 0.185 -0.756 0.336 -1.18 0.4 c -0.422 0.064 -0.849 0.04 -1.178 -0.129 c -0.331 -0.163 -0.569 -0.472 -0.684 -0.938 c -0.117 -0.471 -0.107 -1.098 0.035 -1.699 c 0.144 -0.603 0.423 -1.174 0.891 -1.757 c 0.465 -0.583 1.12 -1.176 1.681 -1.526 c 0.562 -0.353 1.033 -0.456 1.408 -0.473 c 0.374 -0.011 0.647 0.065 0.861 0.184 c 0.215 0.121 0.368 0.284 0.399 0.429 c 0.032 0.141 -0.06 0.267 -0.269 0.205 c -0.206 -0.064 -0.53 -0.31 -0.969 -0.289 c -0.432 0.02 -0.98 0.31 -1.465 0.698" transform="matrix(3.543307,0,0,3.543307,0,0)" stroke-opacity="1" fill="#d64936" fill-rule="evenodd" stroke="#2d2d2d" stroke-linejoin="miter" fill-opacity="1" stroke-linecap="butt" stroke-width="0.213" stroke-miterlimit="4"/><path d="m 6.734 4.722 c -0.486 0.391 -0.992 0.885 -1.311 1.358 c -0.316 0.472 -0.508 0.884 -0.628 1.289 c -0.118 0.408 -0.129 0.842 -0.054 1.196 c 0.075 0.354 0.248 0.729 0.571 0.852 c 0.325 0.125 0.869 0.014 1.253 -0.132 c 0.387 -0.142 0.674 -0.389 0.886 -0.7 c 0.212 -0.311 0.206 -0.712 0.346 -0.884 c 0.142 -0.172 0.431 -0.111 0.455 0.151 c 0.025 0.259 -0.096 0.699 -0.281 1.029 c -0.185 0.33 -0.432 0.55 -0.771 0.736 c -0.335 0.183 -0.756 0.334 -1.181 0.398 c -0.421 0.065 -0.767 0.065 -1.099 -0.098 c -0.332 -0.166 -0.659 -0.591 -0.774 -1.056 c -0.117 -0.471 -0.132 -0.957 0.01 -1.558 c 0.142 -0.603 0.463 -1.227 0.927 -1.808 c 0.466 -0.583 1.12 -1.176 1.682 -1.528 c 0.562 -0.351 1.033 -0.454 1.407 -0.471 c 0.375 -0.014 0.647 0.063 0.862 0.184 c 0.215 0.121 0.417 0.293 0.445 0.437 c 0.031 0.142 -0.133 0.356 -0.343 0.294 c -0.208 -0.061 -0.496 -0.369 -0.934 -0.348 c -0.433 0.021 -0.99 0.269 -1.476 0.659" transform="matrix(3.543307,0,0,3.543307,0,0)" stroke-opacity="1" fill="#d64936" fill-rule="nonzero" stroke="#2d2d2d" stroke-linejoin="miter" fill-opacity="1" stroke-linecap="butt" stroke-width="0.213" stroke-miterlimit="4"/></g></g></g><g><path d="m 40.03 7.531 c 3.712 4.084 5.969 9.514 5.969 15.469 0 12.703 -10.297 23 -23 23 c -5.954 0 -11.384 -2.256 -15.469 -5.969 4.178 4.291 10.01 6.969 16.469 6.969 c 12.703 0 23 -10.298 23 -23 0 -6.462 -2.677 -12.291 -6.969 -16.469 z" opacity="0.1"/></g></svg>

<?xml version="1.0" encoding="UTF-8" standalone="no"?>
<svg
   xmlns:dc="http://purl.org/dc/elements/1.1/"
   xmlns:cc="http://creativecommons.org/ns#"
   xmlns:rdf="http://www.w3.org/1999/02/22-rdf-syntax-ns#"
   xmlns:svg="http://www.w3.org/2000/svg"
   xmlns="http://www.w3.org/2000/svg"
   xmlns:sodipodi="http://sodipodi.sourceforge.net/DTD/sodipodi-0.dtd"
   xmlns:inkscape="http://www.inkscape.org/namespaces/inkscape"
   viewBox="0 0 48 48"
   id="svg2"
   version="1.1"
   inkscape:version="0.48.4 r9939"
   width="100%"
   height="100%"
   sodipodi:docname="gromit.svg">
  <metadata
     id="metadata69">
    <rdf:RDF>
      <cc:Work
         rdf:about="">
        <dc:format>image/svg+xml</dc:format>
        <dc:type
           rdf:resource="http://purl.org/dc/dcmitype/StillImage" />
      </cc:Work>
    </rdf:RDF>
  </metadata>
  <sodipodi:namedview
     pagecolor="#ffffff"
     bordercolor="#666666"
     borderopacity="1"
     objecttolerance="10"
     gridtolerance="10"
     guidetolerance="10"
     inkscape:pageopacity="0"
     inkscape:pageshadow="2"
     inkscape:window-width="1375"
     inkscape:window-height="876"
     id="namedview67"
     showgrid="false"
     inkscape:zoom="4.9166667"
     inkscape:cx="-12"
     inkscape:cy="24"
     inkscape:window-x="65"
     inkscape:window-y="24"
     inkscape:window-maximized="1"
     inkscape:current-layer="svg2" />
  <defs
     id="defs4">
    <linearGradient
       id="linearGradient3764"
       x1="1"
       x2="47"
       gradientUnits="userSpaceOnUse"
       gradientTransform="matrix(0,-1,1,0,-1.5e-6,47.999998)">
      <stop
         stop-color="#9dca3c"
         stop-opacity="1"
         id="stop7" />
      <stop
         offset="1"
         stop-color="#a5ce4c"
         stop-opacity="1"
         id="stop9" />
    </linearGradient>
    <clipPath
       id="clipPath-929894695">
      <g
         transform="translate(0,-1004.3622)"
         id="g12">
        <path
           d="m -24 13 c 0 1.105 -0.672 2 -1.5 2 -0.828 0 -1.5 -0.895 -1.5 -2 0 -1.105 0.672 -2 1.5 -2 0.828 0 1.5 0.895 1.5 2 z"
           transform="matrix(15.333333,0,0,11.5,414.99999,878.8622)"
           fill="#1890d0"
           id="path14" />
      </g>
    </clipPath>
    <clipPath
       id="clipPath-942386966">
      <g
         transform="translate(0,-1004.3622)"
         id="g17">
        <path
           d="m -24 13 c 0 1.105 -0.672 2 -1.5 2 -0.828 0 -1.5 -0.895 -1.5 -2 0 -1.105 0.672 -2 1.5 -2 0.828 0 1.5 0.895 1.5 2 z"
           transform="matrix(15.333333,0,0,11.5,414.99999,878.8622)"
           fill="#1890d0"
           id="path19" />
      </g>
    </clipPath>
    <linearGradient
       id="linearGradient3764-0"
       x1="1"
       x2="47"
       gradientUnits="userSpaceOnUse"
       gradientTransform="matrix(0,-1,1,0,-1.5e-6,47.999998)">
      <stop
         stop-color="#b5945b"
         stop-opacity="1"
         id="stop7-8" />
      <stop
         offset="1"
         stop-color="#bb9e69"
         stop-opacity="1"
         id="stop9-0" />
    </linearGradient>
    <clipPath
       id="clipPath-899834956">
      <g
         transform="translate(0,-1004.3622)"
         id="g12-4">
        <path
           d="m -24 13 c 0 1.105 -0.672 2 -1.5 2 -0.828 0 -1.5 -0.895 -1.5 -2 0 -1.105 0.672 -2 1.5 -2 0.828 0 1.5 0.895 1.5 2 z"
           transform="matrix(15.333333,0,0,11.5,414.99999,878.8622)"
           fill="#1890d0"
           id="path14-3" />
      </g>
    </clipPath>
    <clipPath
       id="clipPath-909443126">
      <g
         transform="translate(0,-1004.3622)"
         id="g17-5">
        <path
           d="m -24 13 c 0 1.105 -0.672 2 -1.5 2 -0.828 0 -1.5 -0.895 -1.5 -2 0 -1.105 0.672 -2 1.5 -2 0.828 0 1.5 0.895 1.5 2 z"
           transform="matrix(15.333333,0,0,11.5,414.99999,878.8622)"
           fill="#1890d0"
           id="path19-5" />
      </g>
    </clipPath>
    <clipPath
       id="clipPath-909443126-7">
      <g
         transform="translate(0,-1004.3622)"
         id="g17-2">
        <path
           style="fill:#1890d0"
           inkscape:connector-curvature="0"
           d="m -24,13 c 0,1.105 -0.672,2 -1.5,2 -0.828,0 -1.5,-0.895 -1.5,-2 0,-1.105 0.672,-2 1.5,-2 0.828,0 1.5,0.895 1.5,2 z"
           transform="matrix(15.333333,0,0,11.5,414.99999,878.8622)"
           id="path19-3" />
      </g>
    </clipPath>
    <linearGradient
       id="linearGradient3759">
      <stop
         id="stop3761"
         offset="0"
         style="stop-color:#a75e15;stop-opacity:1;" />
      <stop
         id="stop3763"
         offset="1"
         style="stop-color:#ffffff;stop-opacity:0;" />
    </linearGradient>
    <linearGradient
       id="linearGradient3777">
      <stop
         id="stop3779"
         offset="0"
         style="stop-color:#e0dd00;stop-opacity:1;" />
      <stop
         id="stop3781"
         offset="1"
         style="stop-color:#000000;stop-opacity:0;" />
    </linearGradient>
    <clipPath
       id="clipPath-942386966-7">
      <g
         transform="translate(0,-1004.3622)"
         id="g17-1">
        <path
           style="fill:#1890d0"
           inkscape:connector-curvature="0"
           d="m -24,13 c 0,1.105 -0.672,2 -1.5,2 -0.828,0 -1.5,-0.895 -1.5,-2 0,-1.105 0.672,-2 1.5,-2 0.828,0 1.5,0.895 1.5,2 z"
           transform="matrix(15.333333,0,0,11.5,414.99999,878.8622)"
           id="path19-8" />
      </g>
    </clipPath>
  </defs>
  <g
     id="g33" />
  <g
     id="g3093">
    <g
       inkscape:label="shadows"
       id="layer2">
      <rect
         ry="13.03658"
         rx="13.03658"
         y="1"
         x="1"
         height="46"
         width="46"
         id="rect3007"
         style="opacity:0.1;fill:#000000;fill-opacity:1;fill-rule:nonzero;stroke:none" />
      <rect
         style="opacity:0.1;fill:#000000;fill-opacity:1;fill-rule:nonzero;stroke:none"
         id="rect3011"
         width="47"
         height="47"
         x="0.5"
         y="0.5"
         rx="13.319984"
         ry="13.319984" />
      <rect
         style="opacity:0.1;fill:#000000;fill-opacity:1;fill-rule:nonzero;stroke:none"
         id="rect3013"
         width="46.5"
         height="46.5"
         x="0.75"
         y="0.75"
         rx="13.178282"
         ry="13.178282" />
    </g>
    <g
       style="display:inline"
       inkscape:label="background-color"
       id="layer1">
      <rect
         transform="matrix(0,-1,1,0,0,0)"
         ry="12.753176"
         rx="12.753176"
         y="1.5"
         x="-46.5"
         height="45"
         width="45"
         id="rect2988"
         style="fill:#9dca3c;fill-opacity:1;fill-rule:nonzero;stroke:none" />
    </g>
  </g>
  <g
     transform="translate(0.01776335,2.5084222e-4)"
     id="g51-2">
    <g
       clip-path="url(#clipPath-942386966-7)"
       id="g53-3">
      <!-- color: #a5ce4c -->
      <g
         id="g55-5">
        <path
           style="fill:#d64936;fill-opacity:1;fill-rule:nonzero;stroke:#2d2d2d;stroke-width:0.213;stroke-linecap:butt;stroke-linejoin:miter;stroke-miterlimit:4;stroke-opacity:1"
           inkscape:connector-curvature="0"
           d="M 6.105,8.215 C 5.957,8.152 5.918,7.937 6.097,7.751 6.28,7.565 6.681,7.409 7.121,7.215 7.561,7.021 8.035,6.785 8.35,6.796 8.665,6.807 8.935,7.098 8.963,7.474 8.989,7.851 8.903,8.349 8.801,8.705 8.698,9.061 8.686,9.235 8.547,9.298 8.407,9.361 8.151,9.391 8.161,9.054 8.17,8.72 8.31,8.044 8.355,7.753 8.399,7.462 8.207,7.441 8.053,7.484 7.898,7.527 7.685,7.611 7.458,7.717 7.231,7.823 6.988,7.954 6.744,8.065 6.498,8.176 6.248,8.271 6.103,8.212"
           transform="scale(3.543307,3.543307)"
           stroke-miterlimit="4"
           id="path57-7" />
        <path
           style="fill:#d64936;fill-opacity:1;fill-rule:evenodd;stroke:#2d2d2d;stroke-width:0.213;stroke-linecap:butt;stroke-linejoin:miter;stroke-miterlimit:4;stroke-opacity:1"
           inkscape:connector-curvature="0"
           d="M 6.734,4.722 C 6.248,5.113 5.818,5.607 5.501,6.08 5.184,6.552 4.98,7.002 4.859,7.407 4.738,7.812 4.698,8.172 4.773,8.526 4.848,8.88 5.035,9.227 5.363,9.352 5.688,9.477 6.15,9.38 6.538,9.233 6.925,9.09 7.237,8.896 7.45,8.585 7.662,8.274 7.775,7.845 7.915,7.673 8.056,7.501 8.228,7.587 8.251,7.849 8.276,8.109 8.155,8.548 7.97,8.878 7.786,9.208 7.538,9.428 7.199,9.614 6.864,9.799 6.443,9.95 6.019,10.014 5.597,10.078 5.17,10.054 4.841,9.885 4.51,9.722 4.272,9.413 4.157,8.947 4.04,8.476 4.05,7.849 4.192,7.248 4.336,6.645 4.615,6.074 5.083,5.491 5.548,4.908 6.203,4.315 6.764,3.965 7.326,3.612 7.797,3.509 8.172,3.492 8.546,3.481 8.819,3.557 9.033,3.676 9.248,3.797 9.401,3.96 9.432,4.105 9.464,4.246 9.372,4.372 9.163,4.31 8.957,4.246 8.633,4 8.194,4.021 7.762,4.041 7.214,4.331 6.729,4.719"
           transform="scale(3.543307,3.543307)"
           stroke-miterlimit="4"
           id="path59-8" />
        <path
           style="fill:#d64936;fill-opacity:1;fill-rule:nonzero;stroke:#2d2d2d;stroke-width:0.213;stroke-linecap:butt;stroke-linejoin:miter;stroke-miterlimit:4;stroke-opacity:1"
           inkscape:connector-curvature="0"
           d="M 6.734,4.722 C 6.248,5.113 5.742,5.607 5.423,6.08 5.107,6.552 4.915,6.964 4.795,7.369 4.677,7.777 4.666,8.211 4.741,8.565 4.816,8.919 4.989,9.294 5.312,9.417 5.637,9.542 6.181,9.431 6.565,9.285 6.952,9.143 7.239,8.896 7.451,8.585 7.663,8.274 7.657,7.873 7.797,7.701 7.939,7.529 8.228,7.59 8.252,7.852 8.277,8.111 8.156,8.551 7.971,8.881 7.786,9.211 7.539,9.431 7.2,9.617 6.865,9.8 6.444,9.951 6.019,10.015 5.598,10.08 5.252,10.08 4.92,9.917 4.588,9.751 4.261,9.326 4.146,8.861 4.029,8.39 4.014,7.904 4.156,7.303 4.298,6.7 4.619,6.076 5.083,5.495 5.549,4.912 6.203,4.319 6.765,3.967 7.327,3.616 7.798,3.513 8.172,3.496 8.547,3.482 8.819,3.559 9.034,3.68 9.249,3.801 9.451,3.973 9.479,4.117 9.51,4.259 9.346,4.473 9.136,4.411 8.928,4.35 8.64,4.042 8.202,4.063 7.769,4.084 7.212,4.332 6.726,4.722"
           transform="scale(3.543307,3.543307)"
           stroke-miterlimit="4"
           id="path61-3" />
      </g>
    </g>
  </g>
</svg>
